src/assets/images/plane.svg

<svg width="40" height="41" viewBox="0 0 40 41" fill="none" xmlns="http://www.w3.org/2000/svg">
<g clip-path="url(#clip0)">
<path fill-rule="evenodd" clip-rule="evenodd" d="M26.9213 18.8709C26.9213 18.8709 13.7079 3.27305 12.6741 2.11436C11.6404 0.955662 9.07864 1.00023 9.07864 1.00023L16.4494 17.4894V18.6481L26.9213 18.8709Z" fill="#1111B7"/>
<path fill-rule="evenodd" clip-rule="evenodd" d="M26.9213 23.5502C26.9213 23.5502 13.7079 39.148 12.6741 40.3067C11.6404 41.4654 9.07864 41.4209 9.07864 41.4209L16.4494 24.9317V23.7731L26.9213 23.5502Z" fill="#1111B7"/>
<path fill-rule="evenodd" clip-rule="evenodd" d="M7.59551 19.5839L2.02248 13.5231H0.179779L2.9663 20.4752L7.59551 19.5839Z" fill="#1111B7"/>
<path fill-rule="evenodd" clip-rule="evenodd" d="M7.59551 22.6144L2.02248 28.6752H0.179779L2.9663 21.7231L7.59551 22.6144Z" fill="#1111B7"/>
<path fill-rule="evenodd" clip-rule="evenodd" d="M2.20224 23.6394L2.74157 22.2133L7.05617 23.1937L6.33707 23.9513L2.20224 23.6394Z" fill="#0C0C96"/>
<path fill-rule="evenodd" clip-rule="evenodd" d="M0 21.2774C0 19.7176 10.6517 18.4698 11.8202 18.4698H32.8989C34.0674 18.4698 39.6404 19.7176 39.6404 21.2774C39.6404 22.8372 34.1124 24.085 32.8989 24.085H11.8652C10.6517 24.085 0 22.7926 0 21.2774Z" fill="#4141E5"/>
<path fill-rule="evenodd" clip-rule="evenodd" d="M0 21.2774C0 19.7176 10.6517 18.4698 11.8202 18.4698H32.8989C34.0674 18.4698 39.6404 19.7176 39.6404 21.2774C32.6742 19.7176 7.14607 19.9404 0 21.2774Z" fill="#8484F4"/>
<path fill-rule="evenodd" clip-rule="evenodd" d="M17.573 13.5231V13.0774C17.573 12.5426 18.0225 12.2307 18.7865 12.0524L20.3595 11.785H22.7416C23.2809 11.785 23.7303 12.2307 23.7303 12.7654V13.7904C23.7303 14.3252 23.2809 14.7709 22.7416 14.7709H20.4494L18.8764 14.4589C18.2921 14.2807 17.573 14.0578 17.573 13.5231Z" fill="#0A0A7A"/>
<path fill-rule="evenodd" clip-rule="evenodd" d="M13.9326 8.04154V7.68501C13.9326 7.23936 14.2921 6.97197 14.9214 6.83827L16.1798 6.61545H18.0674C18.5169 6.61545 18.8315 6.97197 18.8315 7.37306V8.2198C18.8315 8.66545 18.4719 8.9774 18.0674 8.9774H16.2247L14.9663 8.71001C14.4719 8.71001 13.9326 8.48719 13.9326 8.04154Z" fill="#0A0A7A"/>
<path fill-rule="evenodd" clip-rule="evenodd" d="M17.573 29.0763V29.522C17.573 30.0568 18.0225 30.3687 18.7865 30.547L20.3595 30.8144H22.7416C23.2809 30.8144 23.7303 30.3687 23.7303 29.8339V28.8089C23.7303 28.2741 23.2809 27.8285 22.7416 27.8285H20.4494L18.8764 28.1404C18.2921 28.2741 17.573 28.5415 17.573 29.0763Z" fill="#0A0A7A"/>
<path fill-rule="evenodd" clip-rule="evenodd" d="M13.9326 34.5133V34.8698C13.9326 35.3155 14.2921 35.5828 14.9214 35.7165L16.1798 35.9394H18.0674C18.5169 35.9394 18.8315 35.5828 18.8315 35.1818V34.335C18.8315 33.8894 18.4719 33.5774 18.0674 33.5774H16.2247L14.9663 33.8448C14.4719 33.8894 13.9326 34.1122 13.9326 34.5133Z" fill="#0A0A7A"/>
<path fill-rule="evenodd" clip-rule="evenodd" d="M16.4944 24.8872V24.085H26.4719L25.7528 24.8872H16.4944Z" fill="#0C0C96"/>
</g>
<defs>
<clipPath id="clip0">
<rect width="40" height="41" fill="white"/>
</clipPath>
</defs>
</svg>

<svg xmlns="http://www.w3.org/2000/svg" width="40" height="41" fill="none">
  <g fill-rule="evenodd" clip-path="url(#clip0)" clip-rule="evenodd">
    <path fill="#1111B7" d="M26.921 18.87S13.708 3.274 12.674 2.115C11.64.956 9.08 1 9.08 1l7.37 16.49v1.158l10.472.223zM26.921 23.55S13.708 39.148 12.674 40.307C11.64 41.465 9.08 41.42 9.08 41.42l7.37-16.49v-1.158l10.472-.223zM7.596 19.584l-5.574-6.06H.18l2.786 6.951 4.63-.891zM7.596 22.614l-5.574 6.061H.18l2.786-6.952 4.63.891z"/>
    <path fill="#0C0C96" d="M2.202 23.64l.54-1.427 4.314.98-.719.758-4.135-.312z"/>
    <path fill="#4141E5" d="M0 21.277c0-1.56 10.652-2.807 11.82-2.807H32.9c1.168 0 6.741 1.248 6.741 2.807 0 1.56-5.528 2.808-6.741 2.808H11.865C10.652 24.085 0 22.793 0 21.277z"/>
    <path fill="#8484F4" d="M0 21.277c0-1.56 10.652-2.807 11.82-2.807H32.9c1.168 0 6.741 1.248 6.741 2.807-6.966-1.56-32.494-1.337-39.64 0z"/>
    <path fill="#0A0A7A" d="M17.573 13.523v-.446c0-.534.45-.846 1.213-1.025l1.573-.267h2.383c.539 0 .988.446.988.98v1.025c0 .535-.45.98-.988.98h-2.293l-1.573-.311c-.584-.178-1.303-.401-1.303-.936zM13.933 8.042v-.357c0-.446.36-.713.988-.847l1.259-.223h1.887c.45 0 .764.357.764.758v.847c0 .445-.36.757-.764.757h-1.842l-1.259-.267c-.494 0-1.033-.223-1.033-.668zM17.573 29.076v.446c0 .535.45.847 1.213 1.025l1.573.267h2.383c.539 0 .988-.445.988-.98v-1.025c0-.535-.45-.98-.988-.98h-2.293l-1.573.311c-.584.134-1.303.401-1.303.936zM13.933 34.513v.357c0 .446.36.713.988.847l1.259.222h1.887c.45 0 .764-.356.764-.757v-.847a.754.754 0 0 0-.764-.758h-1.842l-1.259.268c-.494.044-1.033.267-1.033.668z"/>
    <path fill="#0C0C96" d="M16.494 24.887v-.802h9.978l-.72.802h-9.258z"/>
  </g>
  <defs>
    <clipPath id="clip0">
      <path fill="#fff" d="M0 0h40v41H0z"/>
    </clipPath>
  </defs>
</svg>
